X:1
T:B  Major James P. Carrell, 1821
T:Isaac Watts, 1719 (Hymn 39, Book 3)          88. 88. 44. 44.
T:Hosanna
T:Transcribed from Songs of Zion, 1821
%%score [ 1 2 3 4 ]
L:1/8
Q:1/4=140
M:4/4
K:Bb
V:1 treble nm="Tr." snm="Tr."
V:2 treble nm="C." snm="C."
V:3 treble-8 nm="T." snm="T."
V:4 bass nm="B." snm="B."
V:1
 B8 | d2 d2 f2 f2 | f6 B2 | d2 f2 ed c2 | B6 d2 | B2 B2 c2 A2 | B6 c2 | d2 B2 A2 c2 | d6 z2 | %9
w: 1.~Let|eve- ry saint a-|bove, And|an- gel round * the|throne For|ev- er bless and|love The|sa- cred three in|one;|
w: 2.~To|him that chose us|first, Be-|fore the world * be-|gan; To|him that bore the|curse To|save re- bel- lious|man;|
w: 3.~The|Fa- ther's love shall|run Through|our im- mor- * tal|songs; We|bring to God the|Son Ho-|san- nas on our|tongues;|
 z4 z2 d2 | f2 f2 f2 fe | d2 dc B2 c2 | (d>ed>e f2) d2 | d6 B2 | A6 A2 | B8 |] %16
w: Thus|heav'n shall raise His *|ho- nors * high, When|earth~ _ _ _ _ and|time grow|old and|die.|
w: To|him that formed Our *|hearts a- * new, Is|end- * * * * less|praise and|glo- ry|due.|
w: Our|lips ad- dress The *|Spi- rit's * name With|e- * * * * qual|praise, and|zeal the|same.|
V:2
 D8 | F2 F2 F2 D2 | F6 F2 | G2 A2 G2 FD | F6 F2 | D2 D2 F2 F2 | G6 A2 | G2 G2 F2 F2 | D6 z2 | %9
 z4 z2 DE | F2 F2 F2 G2 | A2 A2 B2 G2 | (D>EF>G F2) F2 | G6 DE | F6 F2 | D8 |] %16
V:3
 B8 | B2 B2 d2 B2 | c6 d2 | B2 A2 F2 F2 | B6 B2 | d2 d2 f2 f2 | d6 c2 | d2 Bd c2 A2 | B6 F2 | %9
w: 1.~Let|eve- ry saint a-|bove, And|an- gel round the|throne For|ev- er bless and|love The|sa- cred * three in|one; Thus|
w: 2.~To|him that chose us|first, Be-|fore the world be-|gan; To|him that bore the|curse To|save re- * bel- lious|man; To|
w: 3.~The|Fa- ther's love shall|run Through|our im- mor- tal|songs; We|bring to God the|Son Ho-|san- nas * on our|tongues; Our|
 B2 B2 B2 dB | c2 c2 c2 e2 | d2 d2 d2 c2 | B2 B2 B2 F2 | G2 G2 B2 d2 | c6 cB | B8 |] %16
w: heav'n shall raise His *|ho- nors high, When|earth and time grow|old and die, When|earth and time grow|old and *|die.|
w: him that formed Our *|hearts a- new, Is|end- less praise and|glo- ry due, Is|end- less praise and|glo- ry *|due.|
w: lips ad- dress The *|Spi- rit's name With|e- qual praise, and|zeal the same, With|e- qual praise and|zeal the *|same.|
V:4
 B,,8 | B,,2 B,,2 F,2 F,2 | F,6 D,2 | E,2 D,2 G,2 F,2 | B,,6 B,2 | G,2 G,2 F,2 F,2 | D,6 C,2 | %7
w: |||||||
w: |||||||
w: |||||||
 B,,2 D,2 E,2 F,2 | B,,6 z2 | z4 z2 B,2 | F,2 F,2 F,2 E,2 | D,2 D,2 B,,2 F,2 | (B,G,F,E, D,2) F,2 | %13
w: ||Thus|heav'n shall raise His|ho- nors high, When|earth~ _ _ _ _ and|
w: ||To|him that formed Our|hearts a- new, Is|end- * * * * less|
w: ||Our|lips ad- dress The|Spi- rit's name With|e- * * * * qual|
 B,,6 D,2 | F,6 F,2 | B,,8 |] %16
w: time grow|old and|die.|
w: praise and|glo- ry|due.-|
w: priase and|zeal the|same.|

